src/images/phone1.svg

<svg width="30" height="30" viewBox="0 0 30 30" fill="none" xmlns="http://www.w3.org/2000/svg">
<rect width="30" height="30" fill="#E5E5E5"/>
<g id="Contact us" clip-path="url(#clip0_1_2)">
<rect width="1440" height="3204" transform="translate(-519 -1070)" fill="url(#paint0_linear_1_2)"/>
<g id="Group 115">
<g id="Group 69">
<g id="Group 68">
<g id="phone 1" clip-path="url(#clip1_1_2)">
<g id="Group">
<path id="Vector" d="M10.0757 12.3489C11.1038 11.3208 11.1038 9.64807 10.0757 8.61999L6.46006 5.00434C5.90699 4.45122 5.14029 4.17096 4.3573 4.23542C3.58926 4.29864 2.89457 4.69016 2.45143 5.3095C2.35943 5.43805 2.27061 5.56848 2.18359 5.69997L9.45408 12.9705L10.0757 12.3489Z" fill="white"/>
<path id="Vector_2" d="M24.9955 23.5394L21.3798 19.9237C20.3519 18.8958 18.679 18.8956 17.6509 19.9237L17.0293 20.5454L24.3001 27.8161C24.4316 27.7291 24.5618 27.6399 24.6903 27.548C25.3096 27.1049 25.7011 26.4102 25.7644 25.6421C25.8289 24.859 25.5486 24.0926 24.9955 23.5394Z" fill="white"/>
<path id="Vector_3" d="M14.5435 21.939C13.8391 21.939 13.1771 21.6648 12.679 21.1668L8.83292 17.3207C8.33494 16.8227 8.0606 16.1605 8.0606 15.4562C8.0606 15.0561 8.14937 14.6698 8.31707 14.3193L1.2857 7.28784C0.296635 9.36458 -0.14106 11.6913 0.0395256 14.0267C0.282865 17.1738 1.64001 20.1301 3.86107 22.3511L7.64869 26.1386C9.86962 28.3596 12.826 29.7168 15.973 29.9602C16.3169 29.9868 16.6605 30 17.0033 30C18.9882 30 20.9409 29.5575 22.7118 28.7141L15.6804 21.6826C15.3299 21.8503 14.9435 21.939 14.5435 21.939Z" fill="white"/>
<path id="Vector_4" d="M17.6951 0C17.2097 0 16.8162 0.393516 16.8162 0.878906C16.8162 1.3643 17.2097 1.75781 17.6951 1.75781C23.5106 1.75781 28.2419 6.48914 28.2419 12.3047C28.2419 12.7901 28.6355 13.1836 29.1208 13.1836C29.6062 13.1836 29.9998 12.7901 29.9998 12.3047C29.9998 5.51988 24.4799 0 17.6951 0Z" fill="white"/>
<path id="Vector_5" d="M17.695 12.3039C17.695 12.3039 17.6951 12.3042 17.6951 12.3047C17.6951 12.7901 18.0886 13.1836 18.574 13.1836C19.0594 13.1836 19.4529 12.7901 19.4529 12.3047C19.4529 11.3354 18.6643 10.5469 17.6951 10.5469C17.2097 10.5469 16.8162 10.94 16.8162 11.4254C16.8162 11.9108 17.2096 12.3039 17.695 12.3039Z" fill="white"/>
<path id="Vector_6" d="M17.6951 8.78906C19.6336 8.78906 21.2107 10.3662 21.2107 12.3047C21.2107 12.7901 21.6042 13.1836 22.0896 13.1836C22.575 13.1836 22.9685 12.7901 22.9685 12.3047C22.9685 9.39691 20.6028 7.03125 17.6951 7.03125C17.2097 7.03125 16.8162 7.42477 16.8162 7.91016C16.8162 8.39555 17.2097 8.78906 17.6951 8.78906Z" fill="white"/>
<path id="Vector_7" d="M17.6951 3.51562C17.2097 3.51562 16.8162 3.90914 16.8162 4.39453C16.8162 4.87992 17.2097 5.27344 17.6951 5.27344C21.5721 5.27344 24.7263 8.42766 24.7263 12.3047C24.7263 12.7901 25.1198 13.1836 25.6052 13.1836C26.0906 13.1836 26.4841 12.7901 26.4841 12.3047C26.4841 7.4584 22.5414 3.51562 17.6951 3.51562Z" fill="white"/>
</g>
</g>
</g>
</g>
</g>
</g>
<defs>
<linearGradient id="paint0_linear_1_2" x1="131.5" y1="-913.5" x2="720" y2="3204" gradientUnits="userSpaceOnUse">
<stop stop-color="#090501"/>
<stop offset="1" stop-color="#120A01"/>
</linearGradient>
<clipPath id="clip0_1_2">
<rect width="1440" height="3204" fill="white" transform="translate(-519 -1070)"/>
</clipPath>
<clipPath id="clip1_1_2">
<rect width="30" height="30" fill="white"/>
</clipPath>
</defs>
</svg>

<svg width="30" height="30" fill="none" xmlns="http://www.w3.org/2000/svg"><g clip-path="url(#a)" fill="#fff"><path d="M10.076 12.349a2.64 2.64 0 0 0 0-3.729L6.46 5.004a2.66 2.66 0 0 0-2.103-.769A2.598 2.598 0 0 0 2.451 5.31c-.092.129-.18.26-.267.391l7.27 7.27.622-.621ZM24.995 23.54l-3.615-3.616a2.64 2.64 0 0 0-3.73 0l-.62.621 7.27 7.271c.132-.087.262-.176.39-.268a2.598 2.598 0 0 0 1.074-1.906 2.659 2.659 0 0 0-.768-2.103ZM14.543 21.939a2.62 2.62 0 0 1-1.864-.772L8.833 17.32a2.62 2.62 0 0 1-.772-1.865c0-.4.088-.786.256-1.137L1.286 7.288A13.3 13.3 0 0 0 .04 14.027 13.216 13.216 0 0 0 3.86 22.35L7.65 26.14A13.217 13.217 0 0 0 17.003 30c1.985 0 3.938-.442 5.709-1.286l-7.032-7.031c-.35.167-.736.256-1.136.256ZM17.695 0a.879.879 0 0 0 0 1.758c5.816 0 10.547 4.731 10.547 10.547a.879.879 0 0 0 1.758 0C30 5.52 24.48 0 17.695 0ZM17.695 12.304a.879.879 0 0 0 1.758 0 1.76 1.76 0 0 0-1.758-1.757.879.879 0 1 0 0 1.757ZM17.695 8.79a3.52 3.52 0 0 1 3.516 3.515.879.879 0 0 0 1.758 0 5.28 5.28 0 0 0-5.274-5.274.879.879 0 0 0 0 1.758Z"/><path d="M17.695 3.516a.879.879 0 0 0 0 1.757 7.04 7.04 0 0 1 7.031 7.032.879.879 0 0 0 1.758 0c0-4.847-3.943-8.79-8.789-8.79Z"/></g><defs><clipPath id="a"><path fill="#fff" d="M0 0h30v30H0z"/></clipPath></defs></svg>
